mimes/16/application-x-firmware.svg

<?xml version="1.0" encoding="UTF-8" standalone="no"?>
<svg
   xmlns:dc="http://purl.org/dc/elements/1.1/"
   xmlns:cc="http://creativecommons.org/ns#"
   xmlns:rdf="http://www.w3.org/1999/02/22-rdf-syntax-ns#"
   xmlns:svg="http://www.w3.org/2000/svg"
   xmlns="http://www.w3.org/2000/svg"
   xmlns:xlink="http://www.w3.org/1999/xlink"
   id="svg4372"
   height="16"
   width="16"
   version="1.1">
  <defs
     id="defs4374">
    <linearGradient
       gradientTransform="matrix(0.2972973,0,0,0.2972973,0.86486906,0.8648672)"
       gradientUnits="userSpaceOnUse"
       xlink:href="#linearGradient3924-4-8"
       id="linearGradient3304"
       y2="40.818172"
       x2="23.99999"
       y1="7.1818104"
       x1="23.99999" />
    <linearGradient
       id="linearGradient3924-4-8">
      <stop
         offset="0"
         style="stop-color:#ffffff;stop-opacity:1"
         id="stop3926-0-4" />
      <stop
         offset="0"
         style="stop-color:#ffffff;stop-opacity:0.23529412"
         id="stop3928-6-8" />
      <stop
         offset="1"
         style="stop-color:#ffffff;stop-opacity:0.15686275"
         id="stop3930-2-1" />
      <stop
         offset="1"
         style="stop-color:#ffffff;stop-opacity:0.39215687"
         id="stop3932-9-0" />
    </linearGradient>
    <radialGradient
       gradientTransform="matrix(0,3.1658508,-3.8866533,0,46.976839,-26.720326)"
       gradientUnits="userSpaceOnUse"
       xlink:href="#linearGradient2867-449-88-871-390-598-476-591-434-148-57-177-8-3-3-6-4-8-8-8-5-3"
       id="radialGradient4370"
       fy="9.9571075"
       fx="6.2001843"
       r="12.671875"
       cy="9.9571075"
       cx="6.7304144" />
    <linearGradient
       x1="20.63636"
       y1="6.733315"
       x2="20.63636"
       y2="21.533314"
       id="linearGradient4898"
       xlink:href="#linearGradient3967"
       gradientUnits="userSpaceOnUse"
       gradientTransform="matrix(0.2972973,0,0,0.40540542,3.864866,2.2702777)" />
    <linearGradient
       id="linearGradient3967">
      <stop
         id="stop3969"
         style="stop-color:#ffffff;stop-opacity:1"
         offset="0" />
      <stop
         id="stop3971"
         style="stop-color:#ffffff;stop-opacity:0.235"
         offset="0.00431017" />
      <stop
         id="stop3973"
         style="stop-color:#ffffff;stop-opacity:0.15686275"
         offset="0.99545413" />
      <stop
         id="stop3975"
         style="stop-color:#ffffff;stop-opacity:0.39215687"
         offset="1" />
    </linearGradient>
    <radialGradient
       cx="7.6152315"
       cy="9.4664392"
       r="19.99999"
       fx="7.6152315"
       fy="9.4664392"
       id="radialGradient4900"
       xlink:href="#linearGradient2867-449-88-871-390-598-476-591-434-148-57-177-8-3-3-6-4-8-8-8-5-9-4-5"
       gradientUnits="userSpaceOnUse"
       gradientTransform="matrix(-1.64176e-8,1.3500008,-2.0000009,-5.2054157e-8,26.932888,-6.2805679)" />
    <linearGradient
       id="linearGradient2867-449-88-871-390-598-476-591-434-148-57-177-8-3-3-6-4-8-8-8-5-9-4-5">
      <stop
         id="stop3750-1-0-7-6-6-1-3-9-3-3-3-6"
         style="stop-color:#505050;stop-opacity:1"
         offset="0" />
      <stop
         id="stop3752-3-7-4-0-32-8-923-0-7-1-1-4"
         style="stop-color:#2b2b2b;stop-opacity:1"
         offset="0.26238" />
      <stop
         id="stop3754-1-8-5-2-7-6-7-1-9-8-6-2"
         style="stop-color:#0a0a0a;stop-opacity:1"
         offset="0.704952" />
      <stop
         id="stop3756-1-6-2-6-6-1-96-6-0-0-6-2"
         style="stop-color:#000000;stop-opacity:1"
         offset="1" />
    </linearGradient>
    <linearGradient
       id="linearGradient2867-449-88-871-390-598-476-591-434-148-57-177-8-3-3-6-4-8-8-8-5-3">
      <stop
         id="stop3750-1-0-7-6-6-1-3-9-3-6"
         style="stop-color:#00ff27;stop-opacity:1"
         offset="0" />
      <stop
         id="stop3752-3-7-4-0-32-8-923-0-7-7"
         style="stop-color:#458b50;stop-opacity:1"
         offset="0.26238" />
      <stop
         id="stop3754-1-8-5-2-7-6-7-1-9-5"
         style="stop-color:#176121;stop-opacity:1"
         offset="0.704952" />
      <stop
         id="stop3756-1-6-2-6-6-1-96-6-0-3"
         style="stop-color:#2b5131;stop-opacity:1"
         offset="1" />
    </linearGradient>
  </defs>
  <metadata
     id="metadata4377">
    <rdf:RDF>
      <cc:Work
         rdf:about="">
        <dc:format>image/svg+xml</dc:format>
        <dc:type
           rdf:resource="http://purl.org/dc/dcmitype/StillImage" />
        <dc:title />
      </cc:Work>
    </rdf:RDF>
  </metadata>
  <rect
     width="13.000003"
     height="13.000003"
     rx="1"
     ry="1"
     x="1.5"
     y="1.499997"
     id="rect5505-21-2"
     style="color:#000000;display:inline;overflow:visible;visibility:visible;fill:url(#radialGradient4370);fill-opacity:1.0;fill-rule:nonzero;stroke:none;stroke-width:0.99999994;marker:none;enable-background:accumulate" />
  <rect
     width="13.000003"
     height="13.000003"
     rx="1"
     ry="1"
     x="1.5"
     y="1.499997"
     id="rect5505-21-2-8"
     style="color:#000000;display:inline;overflow:visible;visibility:visible;opacity:0.7;fill:none;stroke:#153719;stroke-width:1;stroke-linecap:round;stroke-linejoin:round;stroke-miterlimit:4;stroke-dasharray:none;stroke-dashoffset:0;stroke-opacity:1;marker:none;enable-background:accumulate" />
  <path
     id="path4485"
     d="m 3,6 0,1 10,0 0,-1 z m 0,3 0,1 10,0 0,-1 z m 0,3 0,1 10,0 0,-1 z"
     style="opacity:0.05;fill:#000000;fill-opacity:1;stroke:#153719;stroke-width:2;stroke-linejoin:round;stroke-miterlimit:4;stroke-dasharray:none;stroke-opacity:1" />
  <path
     style="opacity:0.15;fill:#000000;fill-opacity:1;stroke:none;stroke-width:1;stroke-linejoin:miter;stroke-miterlimit:4;stroke-dasharray:none;stroke-opacity:1"
     d="m 3,6 0,1 10,0 0,-1 z m 0,3 0,1 10,0 0,-1 z m 0,3 0,1 10,0 0,-1 z"
     id="path4483" />
  <path
     id="rect4448"
     d="m 5,4.4999997 6,0 c 0.277,0 0.5,0.223 0.5,0.5 L 11.5,13 c 0,0.277 -0.223,0.5 -0.5,0.5 l -6,0 C 4.723,13.5 4.5,13.277 4.5,13 l 0,-8.0000003 c 0,-0.277 0.223,-0.5 0.5,-0.5 z"
     style="color:#000000;display:inline;overflow:visible;visibility:visible;opacity:0.15;fill:#000000;fill-opacity:1;fill-rule:nonzero;stroke:#000000;stroke-width:1;stroke-linecap:round;stroke-linejoin:round;stroke-miterlimit:4;stroke-dasharray:none;stroke-dashoffset:0;stroke-opacity:1;marker:none;enable-background:accumulate" />
  <path
     id="rect4226"
     d="m 3,5 0,1 10,0 0,-1 z m 0,3 0,1 10,0 0,-1 z m 0,3 0,1 10,0 0,-1 z"
     style="opacity:1;fill:#f1f1f1;fill-opacity:1;stroke:none;stroke-width:1;stroke-linejoin:miter;stroke-miterlimit:4;stroke-dasharray:none;stroke-opacity:1" />
  <path
     id="rect5505-21"
     d="m 5,3.4999997 6,0 c 0.277,0 0.5,0.223 0.5,0.5 L 11.5,12 c 0,0.277 -0.223,0.5 -0.5,0.5 l -6,0 C 4.723,12.5 4.5,12.277 4.5,12 l 0,-8.0000003 c 0,-0.277 0.223,-0.5 0.5,-0.5 z"
     style="color:#000000;display:inline;overflow:visible;visibility:visible;fill:url(#radialGradient4900);fill-opacity:1;fill-rule:nonzero;stroke:#000000;stroke-width:1;stroke-linecap:round;stroke-linejoin:round;stroke-miterlimit:4;stroke-dasharray:none;stroke-dashoffset:0;stroke-opacity:0.49803922;marker:none;enable-background:accumulate" />
  <path
     id="rect6741-1-6-5"
     d="m 5.5,4.4999997 5,0 0,7.0000003 -5,0 z"
     style="opacity:0.4;fill:none;stroke:url(#linearGradient4898);stroke-width:1;stroke-linecap:round;stroke-linejoin:miter;stroke-miterlimit:4;stroke-dasharray:none;stroke-dashoffset:0;stroke-opacity:1" />
  <rect
     style="opacity:0.2;fill:#ffffff;fill-opacity:1;stroke:none;stroke-width:3;stroke-linecap:round;stroke-linejoin:round;stroke-miterlimit:4;stroke-dasharray:none;stroke-opacity:1"
     id="rect4452"
     width="2"
     height="0.80000001"
     x="6.1211119"
     y="6.8971553" />
  <rect
     y="6.6971507"
     x="7.1211119"
     height="0.80000001"
     width="3"
     id="rect4454"
     style="opacity:0.2;fill:#ffffff;fill-opacity:1;stroke:none;stroke-width:3;stroke-linecap:round;stroke-linejoin:round;stroke-miterlimit:4;stroke-dasharray:none;stroke-opacity:1" />
  <rect
     y="8.1566896"
     x="6.054821"
     height="0.80000001"
     width="1"
     id="rect4479"
     style="opacity:0.2;fill:#ffffff;fill-opacity:1;stroke:none;stroke-width:3;stroke-linecap:round;stroke-linejoin:round;stroke-miterlimit:4;stroke-dasharray:none;stroke-opacity:1" />
  <rect
     style="opacity:0.2;fill:#ffffff;fill-opacity:1;stroke:none;stroke-width:3;stroke-linecap:round;stroke-linejoin:round;stroke-miterlimit:4;stroke-dasharray:none;stroke-opacity:1"
     id="rect4481"
     width="3"
     height="0.80000001"
     x="7.1211119"
     y="6.6971507" />
  <rect
     width="11"
     height="11"
     x="2.5"
     y="2.4999969"
     id="rect6741-0-3-5"
     style="opacity:0.3;fill:none;stroke:url(#linearGradient3304);stroke-width:1;stroke-linecap:round;stroke-linejoin:round;stroke-miterlimit:4;stroke-dasharray:none;stroke-dashoffset:0;stroke-opacity:1" />
</svg>

<?xml version="1.0" encoding="UTF-8" standalone="no"?>
<svg
   xmlns:dc="http://purl.org/dc/elements/1.1/"
   xmlns:cc="http://creativecommons.org/ns#"
   xmlns:rdf="http://www.w3.org/1999/02/22-rdf-syntax-ns#"
   xmlns:svg="http://www.w3.org/2000/svg"
   xmlns="http://www.w3.org/2000/svg"
   xmlns:xlink="http://www.w3.org/1999/xlink"
   version="1.1"
   width="16"
   height="16"
   id="svg4372">
  <defs
     id="defs4374">
    <linearGradient
       x1="23.99999"
       y1="7.1818104"
       x2="23.99999"
       y2="40.818172"
       id="linearGradient3304"
       xlink:href="#linearGradient3924-4-8"
       gradientUnits="userSpaceOnUse"
       gradientTransform="matrix(0.2972973,0,0,0.2972973,0.86486906,0.8648672)" />
    <linearGradient
       id="linearGradient3924-4-8">
      <stop
         id="stop3926-0-4"
         style="stop-color:#ffffff;stop-opacity:1"
         offset="0" />
      <stop
         id="stop3928-6-8"
         style="stop-color:#ffffff;stop-opacity:0.23529412"
         offset="0" />
      <stop
         id="stop3930-2-1"
         style="stop-color:#ffffff;stop-opacity:0.15686275"
         offset="1" />
      <stop
         id="stop3932-9-0"
         style="stop-color:#ffffff;stop-opacity:0.39215687"
         offset="1" />
    </linearGradient>
    <radialGradient
       cx="6.7304144"
       cy="9.9571075"
       r="12.671875"
       fx="6.2001843"
       fy="9.9571075"
       id="radialGradient4370"
       xlink:href="#linearGradient2867-449-88-871-390-598-476-591-434-148-57-177-8-3-3-6-4-8-8-8-5-3"
       gradientUnits="userSpaceOnUse"
       gradientTransform="matrix(0,3.1658508,-3.8866533,0,46.976839,-26.720326)" />
    <linearGradient
       gradientTransform="matrix(0.2972973,0,0,0.40540542,3.864866,2.2702777)"
       gradientUnits="userSpaceOnUse"
       xlink:href="#linearGradient3967"
       id="linearGradient4898"
       y2="21.533314"
       x2="20.63636"
       y1="6.733315"
       x1="20.63636" />
    <linearGradient
       id="linearGradient3967">
      <stop
         offset="0"
         style="stop-color:#ffffff;stop-opacity:1"
         id="stop3969" />
      <stop
         offset="0.00431017"
         style="stop-color:#ffffff;stop-opacity:0.235"
         id="stop3971" />
      <stop
         offset="0.99545413"
         style="stop-color:#ffffff;stop-opacity:0.15686275"
         id="stop3973" />
      <stop
         offset="1"
         style="stop-color:#ffffff;stop-opacity:0.39215687"
         id="stop3975" />
    </linearGradient>
    <radialGradient
       gradientTransform="matrix(-1.64176e-8,1.3500008,-2.0000009,-5.2054157e-8,26.932888,-6.2805679)"
       gradientUnits="userSpaceOnUse"
       xlink:href="#linearGradient2867-449-88-871-390-598-476-591-434-148-57-177-8-3-3-6-4-8-8-8-5-9-4-5"
       id="radialGradient4900"
       fy="9.4664392"
       fx="7.6152315"
       r="19.99999"
       cy="9.4664392"
       cx="7.6152315" />
    <linearGradient
       id="linearGradient2867-449-88-871-390-598-476-591-434-148-57-177-8-3-3-6-4-8-8-8-5-9-4-5">
      <stop
         offset="0"
         style="stop-color:#505050;stop-opacity:1"
         id="stop3750-1-0-7-6-6-1-3-9-3-3-3-6" />
      <stop
         offset="0.26238"
         style="stop-color:#2b2b2b;stop-opacity:1"
         id="stop3752-3-7-4-0-32-8-923-0-7-1-1-4" />
      <stop
         offset="0.704952"
         style="stop-color:#0a0a0a;stop-opacity:1"
         id="stop3754-1-8-5-2-7-6-7-1-9-8-6-2" />
      <stop
         offset="1"
         style="stop-color:#000000;stop-opacity:1"
         id="stop3756-1-6-2-6-6-1-96-6-0-0-6-2" />
    </linearGradient>
    <linearGradient
       id="linearGradient2867-449-88-871-390-598-476-591-434-148-57-177-8-3-3-6-4-8-8-8-5-3">
      <stop
         offset="0"
         style="stop-color:#00ff27;stop-opacity:1"
         id="stop3750-1-0-7-6-6-1-3-9-3-6" />
      <stop
         offset="0.26238"
         style="stop-color:#458b50;stop-opacity:1"
         id="stop3752-3-7-4-0-32-8-923-0-7-7" />
      <stop
         offset="0.704952"
         style="stop-color:#176121;stop-opacity:1"
         id="stop3754-1-8-5-2-7-6-7-1-9-5" />
      <stop
         offset="1"
         style="stop-color:#2b5131;stop-opacity:1"
         id="stop3756-1-6-2-6-6-1-96-6-0-3" />
    </linearGradient>
  </defs>
  <metadata
     id="metadata4377">
    <rdf:RDF>
      <cc:Work
         rdf:about="">
        <dc:format>image/svg+xml</dc:format>
        <dc:type
           rdf:resource="http://purl.org/dc/dcmitype/StillImage" />
        <dc:title />
      </cc:Work>
    </rdf:RDF>
  </metadata>
  <rect
     style="color:#000000;display:inline;overflow:visible;visibility:visible;fill:url(#radialGradient4370);fill-opacity:1.0;fill-rule:nonzero;stroke:none;stroke-width:0.99999994;marker:none;enable-background:accumulate"
     id="rect5505-21-2"
     y="1.499997"
     x="1.5"
     ry="1"
     rx="1"
     height="13.000003"
     width="13.000003" />
  <rect
     style="color:#000000;display:inline;overflow:visible;visibility:visible;opacity:0.7;fill:none;stroke:#153719;stroke-width:1;stroke-linecap:round;stroke-linejoin:round;stroke-miterlimit:4;stroke-dasharray:none;stroke-dashoffset:0;stroke-opacity:1;marker:none;enable-background:accumulate"
     id="rect5505-21-2-8"
     y="1.499997"
     x="1.5"
     ry="1"
     rx="1"
     height="13.000003"
     width="13.000003" />
  <path
     style="color:#000000;display:inline;overflow:visible;visibility:visible;opacity:0.15;fill:#000000;fill-opacity:1;fill-rule:nonzero;stroke:#000000;stroke-width:1;stroke-linecap:round;stroke-linejoin:round;stroke-miterlimit:4;stroke-dasharray:none;stroke-dashoffset:0;stroke-opacity:1;marker:none;enable-background:accumulate"
     d="m 5,4.4999997 6,0 c 0.277,0 0.5,0.223 0.5,0.5 L 11.5,13 c 0,0.277 -0.223,0.5 -0.5,0.5 l -6,0 C 4.723,13.5 4.5,13.277 4.5,13 l 0,-8.0000003 c 0,-0.277 0.223,-0.5 0.5,-0.5 z"
     id="rect4448" />
  <path
     id="rect4226"
     d="M 3 5 L 3 6 L 13 6 L 13 5 L 3 5 z M 3 7 L 3 8 L 13 8 L 13 7 L 3 7 z M 3 9 L 3 10 L 13 10 L 13 9 L 3 9 z M 3 11 L 3 12 L 13 12 L 13 11 L 3 11 z "
     style="opacity:1;fill:#f1f1f1;fill-opacity:1;stroke:none;stroke-width:1;stroke-linejoin:miter;stroke-miterlimit:4;stroke-dasharray:none;stroke-opacity:1" />
  <path
     style="color:#000000;display:inline;overflow:visible;visibility:visible;fill:url(#radialGradient4900);fill-opacity:1;fill-rule:nonzero;stroke:#000000;stroke-width:1;stroke-linecap:round;stroke-linejoin:round;stroke-miterlimit:4;stroke-dasharray:none;stroke-dashoffset:0;stroke-opacity:0.49803922;marker:none;enable-background:accumulate"
     d="m 5,3.4999997 6,0 c 0.277,0 0.5,0.223 0.5,0.5 L 11.5,12 c 0,0.277 -0.223,0.5 -0.5,0.5 l -6,0 C 4.723,12.5 4.5,12.277 4.5,12 l 0,-8.0000003 c 0,-0.277 0.223,-0.5 0.5,-0.5 z"
     id="rect5505-21" />
  <path
     style="opacity:0.4;fill:none;stroke:url(#linearGradient4898);stroke-width:1;stroke-linecap:round;stroke-linejoin:miter;stroke-miterlimit:4;stroke-dasharray:none;stroke-dashoffset:0;stroke-opacity:1"
     d="m 5.5,4.4999997 5,0 0,7.0000003 -5,0 z"
     id="rect6741-1-6-5" />
  <rect
     y="6.8971553"
     x="6.1211119"
     height="0.80000001"
     width="2"
     id="rect4452"
     style="opacity:0.2;fill:#ffffff;fill-opacity:1;stroke:none;stroke-width:3;stroke-linecap:round;stroke-linejoin:round;stroke-miterlimit:4;stroke-dasharray:none;stroke-opacity:1" />
  <rect
     style="opacity:0.2;fill:#ffffff;fill-opacity:1;stroke:none;stroke-width:3;stroke-linecap:round;stroke-linejoin:round;stroke-miterlimit:4;stroke-dasharray:none;stroke-opacity:1"
     id="rect4454"
     width="3"
     height="0.80000001"
     x="7.1211119"
     y="6.6971507" />
  <rect
     style="opacity:0.2;fill:#ffffff;fill-opacity:1;stroke:none;stroke-width:3;stroke-linecap:round;stroke-linejoin:round;stroke-miterlimit:4;stroke-dasharray:none;stroke-opacity:1"
     id="rect4479"
     width="1"
     height="0.80000001"
     x="6.054821"
     y="8.1566896" />
  <rect
     y="6.6971507"
     x="7.1211119"
     height="0.80000001"
     width="3"
     id="rect4481"
     style="opacity:0.2;fill:#ffffff;fill-opacity:1;stroke:none;stroke-width:3;stroke-linecap:round;stroke-linejoin:round;stroke-miterlimit:4;stroke-dasharray:none;stroke-opacity:1" />
  <rect
     style="opacity:0.3;fill:none;stroke:url(#linearGradient3304);stroke-width:1;stroke-linecap:round;stroke-linejoin:round;stroke-miterlimit:4;stroke-dasharray:none;stroke-dashoffset:0;stroke-opacity:1"
     id="rect6741-0-3-5"
     y="2.4999969"
     x="2.5"
     height="11"
     width="11" />
</svg>
